icons-rebrand/svg/webex-teams-new-regular.svg

<svg width="32" height="32" viewBox="0 0 32 32" fill="none" xmlns="http://www.w3.org/2000/svg">
<path fill-rule="evenodd" clip-rule="evenodd" d="M16 7.75C14.2051 7.75 12.75 9.20507 12.75 11C12.75 12.7949 14.2051 14.25 16 14.25C17.7949 14.25 19.25 12.7949 19.25 11C19.25 9.20507 17.7949 7.75 16 7.75ZM18.9602 14.715C20.051 13.8447 20.75 12.504 20.75 11C20.75 8.37665 18.6234 6.25 16 6.25C13.3766 6.25 11.25 8.37665 11.25 11C11.25 12.505 11.9499 13.8465 13.042 14.7168C12.3864 14.9301 11.7645 15.2123 11.1886 15.554C10.7736 15.1996 10.2927 14.9074 9.76508 14.6901C10.1927 14.1782 10.45 13.5191 10.45 12.8C10.45 11.1708 9.12924 9.85 7.5 9.85C5.87076 9.85 4.55 11.1708 4.55 12.8C4.55 13.5205 4.80829 14.1806 5.23732 14.6929C3.50369 15.407 2.25 16.9241 2.25 18.8C2.25 19.4357 2.64119 19.8877 3.04989 20.1731C3.45786 20.4579 3.98566 20.6564 4.53451 20.7964C5.35393 21.0052 6.33631 21.1121 7.31703 21.1239C7.27282 21.4432 7.25 21.7689 7.25 22.1C7.25 23.0985 7.91324 23.8215 8.69725 24.3066C9.48892 24.7966 10.5484 25.1437 11.6987 25.3771C14.0087 25.8459 16.9042 25.8991 19.3406 25.5437C19.7505 25.4839 20.0342 25.1031 19.9744 24.6933C19.9147 24.2834 19.5339 23.9996 19.124 24.0594C16.8449 24.3919 14.1242 24.3388 11.997 23.9071C10.9287 23.6903 10.0642 23.3886 9.4866 23.0311C8.90135 22.669 8.75 22.346 8.75 22.1C8.75 18.6955 11.9279 15.75 16 15.75C17.9725 15.75 19.7576 16.451 21.0615 17.5693C21.3759 17.839 21.8494 17.8027 22.119 17.4883C22.3763 17.1884 22.3551 16.7437 22.0797 16.4693C22.7225 16.0268 23.561 15.75 24.5 15.75C26.5436 15.75 28.0343 17.0284 28.2275 18.4627C28.2827 18.8732 28.6603 19.1612 29.0708 19.1059C29.4814 19.0506 29.7693 18.673 29.714 18.2625C29.4915 16.6101 28.2945 15.2997 26.6995 14.6659C27.1662 14.1441 27.45 13.4552 27.45 12.7C27.45 11.0708 26.1292 9.75 24.5 9.75C22.8708 9.75 21.55 11.0708 21.55 12.7C21.55 13.4543 21.8331 14.1425 22.2989 14.6642C21.7468 14.8837 21.2445 15.1846 20.8131 15.5526C20.2382 15.2107 19.6168 14.9284 18.9602 14.715ZM7.69568 19.6236C8.14733 18.4095 8.92106 17.3329 9.91875 16.4682C9.2764 16.0265 8.43869 15.75 7.5 15.75C5.29552 15.75 3.75507 17.2219 3.75001 18.7922C3.75951 18.8123 3.79482 18.8637 3.9086 18.9432C4.10676 19.0815 4.43886 19.224 4.90505 19.3428C5.68226 19.541 6.68867 19.638 7.69568 19.6236ZM3.74707 18.7827C3.74707 18.7827 3.74878 18.7854 3.74949 18.7911C3.74698 18.7855 3.74707 18.7827 3.74707 18.7827ZM24.5 11.25C23.6992 11.25 23.05 11.8992 23.05 12.7C23.05 13.5008 23.6992 14.15 24.5 14.15C25.3008 14.15 25.95 13.5008 25.95 12.7C25.95 11.8992 25.3008 11.25 24.5 11.25ZM7.5 11.35C6.69919 11.35 6.05 11.9992 6.05 12.8C6.05 13.6008 6.69919 14.25 7.5 14.25C8.30081 14.25 8.95 13.6008 8.95 12.8C8.95 11.9992 8.30081 11.35 7.5 11.35Z" fill="black"/>
<path d="M26.75 19C26.75 18.5858 26.4142 18.25 26 18.25C25.5858 18.25 25.25 18.5858 25.25 19V22.25H22C21.5858 22.25 21.25 22.5858 21.25 23C21.25 23.4142 21.5858 23.75 22 23.75H25.25V27C25.25 27.4142 25.5858 27.75 26 27.75C26.4142 27.75 26.75 27.4142 26.75 27V23.75H30C30.4142 23.75 30.75 23.4142 30.75 23C30.75 22.5858 30.4142 22.25 30 22.25H26.75V19Z" fill="black"/>
</svg>

<?xml version="1.0" encoding="utf-8"?>
<!-- Generator: Adobe Illustrator 25.2.0, SVG Export Plug-In . SVG Version: 6.00 Build 0)  -->
<svg version="1.1" id="Layer_1" xmlns="http://www.w3.org/2000/svg" xmlns:xlink="http://www.w3.org/1999/xlink" x="0px" y="0px"
	 viewBox="0 0 32 32" style="enable-background:new 0 0 32 32;" xml:space="preserve">
<style type="text/css">
	.st0{fill:#0F0F0F;}
</style>
<g>
	<path class="st0" d="M16,15.75c1.972,0,3.758,0.701,5.062,1.819c0.314,0.27,0.788,0.233,1.057-0.081
		c0.257-0.3,0.236-0.745-0.039-1.019c0.643-0.443,1.481-0.719,2.42-0.719c2.044,0,3.534,1.278,3.727,2.713
		c0.055,0.411,0.433,0.698,0.843,0.643c0.411-0.055,0.698-0.433,0.643-0.843c-0.222-1.652-1.419-2.963-3.014-3.597
		c0.467-0.522,0.75-1.211,0.75-1.966c0-1.629-1.321-2.95-2.95-2.95s-2.95,1.321-2.95,2.95c0,0.754,0.283,1.443,0.749,1.964
		c-0.552,0.22-1.054,0.52-1.486,0.888c-0.575-0.342-1.196-0.624-1.853-0.838c1.091-0.87,1.79-2.211,1.79-3.715
		c0-2.623-2.127-4.75-4.75-4.75S11.25,8.377,11.25,11c0,1.505,0.7,2.846,1.792,3.717c-0.656,0.213-1.277,0.495-1.853,0.837
		c-0.415-0.354-0.896-0.647-1.424-0.864c0.428-0.512,0.685-1.171,0.685-1.89c0-1.629-1.321-2.95-2.95-2.95s-2.95,1.321-2.95,2.95
		c0,0.721,0.258,1.381,0.687,1.893C3.504,15.407,2.25,16.924,2.25,18.8c0,0.636,0.391,1.088,0.8,1.373
		c0.408,0.285,0.936,0.483,1.485,0.623c0.819,0.209,1.802,0.316,2.783,0.328C7.273,21.443,7.25,21.769,7.25,22.1
		c0,0.999,0.663,1.721,1.447,2.207c0.792,0.49,1.851,0.837,3.001,1.07c2.31,0.469,5.205,0.522,7.642,0.167
		c0.41-0.06,0.694-0.441,0.634-0.85c-0.06-0.41-0.441-0.694-0.85-0.634c-2.279,0.333-5,0.279-7.127-0.152
		c-1.068-0.217-1.933-0.518-2.51-0.876C8.901,22.669,8.75,22.346,8.75,22.1C8.75,18.695,11.928,15.75,16,15.75z M24.5,11.25
		c0.801,0,1.45,0.649,1.45,1.45s-0.649,1.45-1.45,1.45s-1.45-0.649-1.45-1.45S23.699,11.25,24.5,11.25z M12.75,11
		c0-1.795,1.455-3.25,3.25-3.25s3.25,1.455,3.25,3.25s-1.455,3.25-3.25,3.25S12.75,12.795,12.75,11z M7.5,11.35
		c0.801,0,1.45,0.649,1.45,1.45c0,0.801-0.649,1.45-1.45,1.45s-1.45-0.649-1.45-1.45C6.05,11.999,6.699,11.35,7.5,11.35z
		 M7.696,19.624c-1.007,0.014-2.013-0.083-2.791-0.281c-0.466-0.119-0.798-0.261-0.996-0.4c-0.114-0.079-0.149-0.131-0.159-0.151
		c0.005-1.57,1.546-3.042,3.75-3.042c0.939,0,1.776,0.276,2.419,0.718C8.921,17.333,8.147,18.409,7.696,19.624z"/>
	<path class="st0" d="M30,22.25h-3.25V19c0-0.414-0.336-0.75-0.75-0.75s-0.75,0.336-0.75,0.75v3.25H22
		c-0.414,0-0.75,0.336-0.75,0.75s0.336,0.75,0.75,0.75h3.25V27c0,0.414,0.336,0.75,0.75,0.75s0.75-0.336,0.75-0.75v-3.25H30
		c0.414,0,0.75-0.336,0.75-0.75S30.414,22.25,30,22.25z"/>
</g>
</svg>
